X:1
T:English Suite II Gigue
T:BWV 807
T:J. S. Bach
%%score { 1 | 2 }
L:1/8
Q:1/4=200
M:6/8
K:C
V:1 treble nm="Harp"
V:2 bass 
V:1
"^Prestissimo" E | A2 A ABc | BDB EFD | CEA DBA | ^GAB Eed | cde Afe | def Bgf | %7
 efg a/4g/4a/4g/4fg | aAB cde | fga b/4a/4b/4a/4ga | bBc def | gab c'/4b/4c'/4b/4ab | c'cd efg | %13
 aBc def | gAB cde | fga def | Bcd GAB | c2 c cBc | dFd EFD | CEG EGc | GBd Bdg | gec _BAG | %22
 A3 z2 A | fdB AGF | G3 z2 G | ecA GFE | dBG FED | EGc ^Fdc | Bcd G2 d | efg GAB | cde Bcd | %31
 efg GAB | cde Bcd | efg f/4e/4f/4e/4dc | cGE C2 E | A2 A ABc | BDB EFD | CEA DBA | ^GAB Eed | %39
 cde Afe | def Bgf | efg a/4g/4a/4g/4fg | aAB cde | fga b/4a/4b/4a/4ga | bBc def | %45
 gab c'/4b/4c'/4b/4ab | c'cd efg | aBc def | gAB cde | fga def | Bcd GAB | c2 c cBc | dFd EFD | %53
 CEG EGc | GBd Bdg | gec _BAG | A3 z2 A | fdB AGF | G3 z2 G | ecA GFE | dBG FED | EGc ^Fdc | %62
 Bcd G2 d | efg GAB | cde Bcd | efg GAB | cde Bcd | efg f/4e/4f/4e/4dc | cGE C2 G | c2 c cde | %70
 dFd GAF | EcE DEC | B,CD G,2 D | E^FG ABc | ^D2 c B3 | DE^F ^GAB | ^C2 B A3 | CDE ^FGA | %78
 B,2 A G3 | A,2 G ^F3 | G,2 ^F E^DE | ^DE^F B,BA | GAB EcB | ABc ^Fdc | Bcd Ged | ^c^de A^fe | %86
 ^de^f g/4f/4g/4f/4ef | gGA B^c^d | e^fg a/4g/4a/4g/4fg | aAB ^c^de | ^fga b/4a/4b/4a/4ga | %91
 b^c^d e^fg | aB^c ^de^f | gab Be^d | e3 z2 e | e^cA GFE | FDF AFA | dBG FED | ECE GEG | cAF EDC | %100
 B^GE DCB, | CEA DBA | ^GAB E2 B | cde E^F^G | ABc ^GAB | cde E^F^G | ABc ^GAB | cde cBA | %108
 AEC A,2 G | c2 c cde | dFd GAF | EcE DEC | B,CD G,2 D | E^FG ABc | ^D2 c B3 | DE^F ^GAB | %116
 ^C2 B A3 | CDE ^FGA | B,2 A G3 | A,2 G ^F3 | G,2 ^F E^DE | ^DE^F B,BA | GAB EcB | ABc ^Fdc | %124
 Bcd Ged | ^c^de A^fe | ^de^f g/4f/4g/4f/4ef | gGA B^c^d | e^fg a/4g/4a/4g/4fg | aAB ^c^de | %130
 ^fga b/4a/4b/4a/4ga | b^c^d e^fg | aB^c ^de^f | gab Be^d | e3 z2 e | e^cA GFE | FDF AFA | %137
 dBG FED | ECE GEG | cAF EDC | B^GE DCB, | CEA DBA | ^GAB E2 B | cde E^F^G | ABc ^GAB | cde E^F^G | %146
 ABc ^GAB | cde cBA | AEC A,2 E | A2 A ABc | BDB EFD | CEA DBA | ^GAB Eed | cde Afe | def Bgf | %155
 efg a/4g/4a/4g/4fg | aAB cde | fga b/4a/4b/4a/4ga | bBc def | gab c'/4b/4c'/4b/4ab | c'cd efg | %161
 aBc def | gAB cde | fga def | Bcd GAB | c2 c cBc | dFd EFD | CEG EGc | GBd Bdg | gec _BAG | %170
 A3 z2 A | fdB AGF | G3 z2 G | ecA GFE | dBG FED | EGc ^Fdc | Bcd G2 d | efg GAB | cde Bcd | %179
 efg GAB | cde Bcd | efg f/4e/4f/4e/4dc | cGE C2 G | c2 c cde | dFd GAF | EcE DEC | B,CD G,2 D | %187
 E^FG ABc | ^D2 c B3 | DE^F ^GAB | ^C2 B A3 | CDE ^FGA | B,2 A G3 | A,2 G ^F3 | G,2 ^F E^DE | %195
 ^DE^F B,BA | GAB EcB | ABc ^Fdc | Bcd Ged | ^c^de A^fe | ^de^f g/4f/4g/4f/4ef | gGA B^c^d | %202
 e^fg a/4g/4a/4g/4fg | aAB ^c^de | ^fga b/4a/4b/4a/4ga | b^c^d e^fg | aB^c ^de^f | gab Be^d | %208
 e3 z2 e | e^cA GFE | FDF AFA | dBG FED | ECE GEG | cAF EDC | B^GE DCB, | CEA DBA | ^GAB E2 B | %217
 cde E^F^G | ABc ^GAB | cde E^F^G | ABc ^GAB | cde cBA | AEC A,2 z |] %223
V:2
 z | A,,3 A,3- | A,3 ^G,3 | A,3 F,3 | E,3- E,^F,^G, | A,B,C F,G,A, | B,CD G,A,B, | %7
 CDE F/4E/4F/4E/4DE | FF,G, A,B,C | DEF G/4F/4G/4F/4EF | GG,A, B,CD | EFG A/4G/4A/4G/4FG | %12
 AA,B, CDE | FG,A, B,CD | EF,G, A,B,C | DEF B,CD | G,3 z2 F | EFG CDE | B,CD G,A,B, | %19
 E,F,G, C,D,E, | B,,C,D, G,,A,,B,, | E,,3 z2 E, | F,G,A, A,B,C | D,,3 z2 D, | E,F,G, G,A,B, | %25
 C,,3 C,3- | C,3 B,,3 | C,3 A,,3 | G,,3- G,,A,,B,, | C,D,E, B,,C,D, | E,F,G, G,A,B, | CDE B,CD | %32
[I:staff -1] EFG GAB | c2 F G2[I:staff +1] G, | C,3- C,E,C, | A,,3 A,3- | A,3 ^G,3 | A,3 F,3 | %38
 E,3- E,^F,^G, | A,B,C F,G,A, | B,CD G,A,B, | CDE F/4E/4F/4E/4DE | FF,G, A,B,C | %43
 DEF G/4F/4G/4F/4EF | GG,A, B,CD | EFG A/4G/4A/4G/4FG | AA,B, CDE | FG,A, B,CD | EF,G, A,B,C | %49
 DEF B,CD | G,3 z2 F | EFG CDE | B,CD G,A,B, | E,F,G, C,D,E, | B,,C,D, G,,A,,B,, | E,,3 z2 E, | %56
 F,G,A, A,B,C | D,,3 z2 D, | E,F,G, G,A,B, | C,,3 C,3- | C,3 B,,3 | C,3 A,,3 | G,,3- G,,A,,B,, | %63
 C,D,E, B,,C,D, | E,F,G, G,A,B, | CDE B,CD |[I:staff -1] EFG GAB | c2 F G2[I:staff +1] G, | %68
 C,3- C,G,,E,, | C,,3 C,3- | C,3 B,,3 | C,3 F,,3 | G,,3- G,,A,,B,, | C,D,E, ^F,G,A, | %74
 B,,B,A, ^G,A,^F, | ^G,^F,E, D,C,B,, | A,,A,G, ^F,G,E, | ^F,E,D, C,B,,A,, | G,,G,^F, E,^D,E, | %79
 ^F,,^F,E, ^D,^C,D, | E,,E,D, C,B,,A,, | B,,3- B,,^C,^D, | E,^F,G, C,D,E, | ^F,G,A, D,E,F, | %84
 G,A,B, E,^F,G, | A,B,C ^F,G,A, | B,^C^D E/4D/4E/4D/4CD | EE,^F, G,A,B, | ^C^DE F/4E/4F/4E/4DE | %89
 ^F^F,G, A,B,^C | ^DE^F G/4F/4G/4F/4EF | GA,B, ^C^DE | ^FG,A, B,^C^D | E2 A, B,2 B,, | %94
 E,^F,G, G,A,_B, | ^C,3 z2 A,, | D,F,A, D2 C, | B,,3 z2 G,, | C,E,G, C2 B,, | A,,3 A,3- | %100
 A,3 ^G,3 | A,3 F,3 | E,3 E,,^F,,^G,, | A,,B,,C, ^G,,A,,B,, | C,D,E, E,^F,^G, | A,B,C ^G,A,B, | %106
[I:staff -1] CDE E^F^G | A2 D E2[I:staff +1] E, | A,3- A,G,F, | E,F,G, C,3- | C,3 B,,3 | C,3 F,,3 | %112
 G,,3- G,,A,,B,, | C,D,E, ^F,G,A, | B,,B,A, ^G,A,^F, | ^G,^F,E, D,C,B,, | A,,A,G, ^F,G,E, | %117
 ^F,E,D, C,B,,A,, | G,,G,^F, E,^D,E, | ^F,,^F,E, ^D,^C,D, | E,,E,D, C,B,,A,, | B,,3- B,,^C,^D, | %122
 E,^F,G, C,D,E, | ^F,G,A, D,E,F, | G,A,B, E,^F,G, | A,B,C ^F,G,A, | B,^C^D E/4D/4E/4D/4CD | %127
 EE,^F, G,A,B, | ^C^DE F/4E/4F/4E/4DE | ^F^F,G, A,B,^C | ^DE^F G/4F/4G/4F/4EF | GA,B, ^C^DE | %132
 ^FG,A, B,^C^D | E2 A, B,2 B,, | E,^F,G, G,A,_B, | ^C,3 z2 A,, | D,F,A, D2 C, | B,,3 z2 G,, | %138
 C,E,G, C2 B,, | A,,3 A,3- | A,3 ^G,3 | A,3 F,3 | E,3 E,,^F,,^G,, | A,,B,,C, ^G,,A,,B,, | %144
 C,D,E, E,^F,^G, | A,B,C ^G,A,B, |[I:staff -1] CDE E^F^G | A2 D E2[I:staff +1] E, | A,3- A,E,C, | %149
 A,,3 A,3- | A,3 ^G,3 | A,3 F,3 | E,3- E,^F,^G, | A,B,C F,G,A, | B,CD G,A,B, | CDE F/4E/4F/4E/4DE | %156
 FF,G, A,B,C | DEF G/4F/4G/4F/4EF | GG,A, B,CD | EFG A/4G/4A/4G/4FG | AA,B, CDE | FG,A, B,CD | %162
 EF,G, A,B,C | DEF B,CD | G,3 z2 F | EFG CDE | B,CD G,A,B, | E,F,G, C,D,E, | B,,C,D, G,,A,,B,, | %169
 E,,3 z2 E, | F,G,A, A,B,C | D,,3 z2 D, | E,F,G, G,A,B, | C,,3 C,3- | C,3 B,,3 | C,3 A,,3 | %176
 G,,3- G,,A,,B,, | C,D,E, B,,C,D, | E,F,G, G,A,B, | CDE B,CD |[I:staff -1] EFG GAB | %181
 c2 F G2[I:staff +1] G, | C,3- C,G,,E,, | C,,3 C,3- | C,3 B,,3 | C,3 F,,3 | G,,3- G,,A,,B,, | %187
 C,D,E, ^F,G,A, | B,,B,A, ^G,A,^F, | ^G,^F,E, D,C,B,, | A,,A,G, ^F,G,E, | ^F,E,D, C,B,,A,, | %192
 G,,G,^F, E,^D,E, | ^F,,^F,E, ^D,^C,D, | E,,E,D, C,B,,A,, | B,,3- B,,^C,^D, | E,^F,G, C,D,E, | %197
 ^F,G,A, D,E,F, | G,A,B, E,^F,G, | A,B,C ^F,G,A, | B,^C^D E/4D/4E/4D/4CD | EE,^F, G,A,B, | %202
 ^C^DE F/4E/4F/4E/4DE | ^F^F,G, A,B,^C | ^DE^F G/4F/4G/4F/4EF | GA,B, ^C^DE | ^FG,A, B,^C^D | %207
 E2 A, B,2 B,, | E,^F,G, G,A,_B, | ^C,3 z2 A,, | D,F,A, D2 C, | B,,3 z2 G,, | C,E,G, C2 B,, | %213
 A,,3 A,3- | A,3 ^G,3 | A,3 F,3 | E,3 E,,^F,,^G,, | A,,B,,C, ^G,,A,,B,, | C,D,E, E,^F,^G, | %219
 A,B,C ^G,A,B, |[I:staff -1] CDE E^F^G | A2 D E2[I:staff +1] E, | A,,3- A,,2 z |] %223

